X: 1
T: Leap Of Faith, The
M: 4/4
L: 1/8
R: hornpipe
K: Gmaj
|:de|fdcA DFAc|BdcA G2AG|FGAB cedc|dBGB A2de|
fdcA DFAc|BdcA G2AG|FGAB cdef|(3gag fa g2:|
|:(3ABc|d2g2 B2e2|dedc A2AG|FGAB cedc|dBGB A2 (3ABc|
d2g2 B2e2|dedc A2AG|FGAB cdef|(3gag fa g2:|
